X: 59
T:Gaspe' Reel
M:4/4
L:1/4
R:Reel
K:D
"D"f d/2f/2 e d|F/2A/2 F/2A/2 B A|"G" g f/2g/2 f e|"A" B/2A/2 B/2c/2 B A|!
"D"f d/2f/2 e d|F/2A/2 F/2A/2 B A|"G" g f/2g/2 f e|"D" A  B d2:|!
"A"e f g>e|"D"f g a2|"A" e f g e|"G" B/2A/2 "D"B/2c/2 B A|!
"A"e f g>e|"D"f g a2|"A"e f g e|A  B "D"d2:|!
